public/icons/github.svg

<svg viewBox="0 0 20 20" xmlns="http://www.w3.org/2000/svg"><path fill-rule="evenodd" clip-rule="evenodd" d="M10 2c-4.42 0-8 3.58-8 8 0 3.54 2.29 6.53 5.47 7.59.4.07.55-.17.55-.38 0-.19-.01-.82-.01-1.49-2.01.37-2.53-.49-2.69-.94-.09-.23-.48-.94-.82-1.13-.28-.15-.68-.52-.01-.53.63-.01 1.08.58 1.23.82.72 1.21 1.87.87 2.33.66.07-.52.28-.87.51-1.07-1.78-.2-3.64-.89-3.64-3.95 0-.87.31-1.59.82-2.15-.08-.2-.36-1.02.08-2.12 0 0 .67-.21 2.2.82.64-.18 1.32-.27 2-.27.68 0 1.36.09 2 .27 1.53-1.04 2.2-.82 2.2-.82.44 1.1.16 1.92.08 2.12.51.56.82 1.27.82 2.15 0 3.07-1.87 3.75-3.65 3.95.29.25.54.73.54 1.48 0 1.07-.01 1.93-.01 2.2 0 .21.15.46.55.38A8.012 8.012 0 0 0 18 10c0-4.42-3.58-8-8-8Z"/></svg>

<svg viewBox="0 0 20 20" xmlns="http://www.w3.org/2000/svg">
<path fill-rule="evenodd" clip-rule="evenodd" d="M10 2C5.58 2 2 5.58 2 10C2 13.54 4.29 16.53 7.47 17.59C7.87 17.66 8.02 17.42 8.02 17.21C8.02 17.02 8.01 16.39 8.01 15.72C6 16.09 5.48 15.23 5.32 14.78C5.23 14.55 4.84 13.84 4.5 13.65C4.22 13.5 3.82 13.13 4.49 13.12C5.12 13.11 5.57 13.7 5.72 13.94C6.44 15.15 7.59 14.81 8.05 14.6C8.12 14.08 8.33 13.73 8.56 13.53C6.78 13.33 4.92 12.64 4.92 9.58C4.92 8.71 5.23 7.99 5.74 7.43C5.66 7.23 5.38 6.41 5.82 5.31C5.82 5.31 6.49 5.1 8.02 6.13C8.66 5.95 9.34 5.86 10.02 5.86C10.7 5.86 11.38 5.95 12.02 6.13C13.55 5.09 14.22 5.31 14.22 5.31C14.66 6.41 14.38 7.23 14.3 7.43C14.81 7.99 15.12 8.7 15.12 9.58C15.12 12.65 13.25 13.33 11.47 13.53C11.76 13.78 12.01 14.26 12.01 15.01C12.01 16.08 12 16.94 12 17.21C12 17.42 12.15 17.67 12.55 17.59C14.1381 17.0539 15.5182 16.0332 16.4958 14.6716C17.4735 13.3101 17.9996 11.6762 18 10C18 5.58 14.42 2 10 2Z" />
</svg>
